X: 121
M: 3/4
L: 1/8
K: G
|:\
gfe Td3 | cBAG AG/F/ |\
|:\
ede Tf3 | fef Tg3 |\
gfg Ta3 | gfed ed/^c/ |\
d6 | cBAG AG/F/ |\


